X:1
T:Erfurt, LM
T:Erfurt, LM
T:Public  domain
Z:Public  domain
%%score ( 1 2 ) ( 3 4 )
L:1/8
Q:1/4=115
M:4/4
K:C
V:1 treble nm="Staff 1"
V:2 treble 
V:3 bass nm="Erfurt"
V:4 bass 
V:1
 ([Ec]2 | [DB]2 [DA]2 [DB]2 [CG]2 | [CA]2 [FB]2 [Ec]2 [Ec]2 | [Cc]2 [EG]2 [DG]2 [CE]2 | %4
 [CG]2 [CF]2 [CE]2) [CE]2 | [CA]2 [FA]2 [EG]2 [GB]2 | [Gc]2 [^FA]2 G2 [Ec]2 | %7
 [EB]2 A2 [EG]2 [CA]2 | F E [B,D]2 x8 |] x8 |] %10
V:2
 x2 | x8 | x8 | x8 | x8 | x8 | x8 | x2 C D x4 | A,2 x2 C8 |] x8 |] %10
V:3
 ([C,G,]2 | G,2 [D,^F,]2 [G,,G,]2 [C,E,]2 | F,2 [D,G,]2 [C,G,]2 [C,G,]2 | %3
 [E,G,]2 [C,G,]2 [B,,G,]2 [C,G,]2 | [E,G,]2 [F,A,]2 [C,G,]2) A,2 | [F,A,]2 [A,C]2 C2 [B,D]2 | %6
 [A,C]2 [D,C]2 [G,B,]2 A,2 | [E,G,]2 A, B, [C,C]2 [A,,E,]2 | [D,F,]2 [G,,G,]2 [C,E,]8 |] x8 |] %10
V:4
 x2 | x8 | x8 | x8 | x8 | x8 | x8 | x2 F,2 x4 | x12 |] x8 |] %10

